!!!!SEGMENT: pl-cz--i-72_kobierkowicz-jozef--caelo-rores-fluunt.krn
!!!cenid: 17xx:916
!!!COM: Kobierkowicz, Józef
!!!COM-rismID: pe30017725
!!!CDT: <1721->=1735
!!!CNT: Polish
!!!OTL: Caelo rores fluunt
!!!PDT:
!!!AGN: Sacred
!!!SMS-siglum: PL-CZ
!!!SMS-shelfmark: I-72
!!!SMS-shelfwork: W
!!!SMS-variant:
!!!SMS-altvar:
!!!NIFC-rismSourceID: 300237559
!!!NIFC-rismChildID: 300237560
!!!NIFC-islandoraID: pl-cz:31854
!!!URL-pdf-islandora: https://repozytorium.nifc.pl/islandora/object/pl-cz%3A31854/datastream/PDF/view
!!!URL-scan:
!!!ONB-nifc:
!!!OMD:
!!!AIN: 1 bass 1 organ 1 soprn 1 violb 2 violn
!!!key: F
**kern	**fba	**kern	**kern	**dynam	**kern	**dynam	**kern	**text	**text	**kern	**text	**text
*part6	*part6	*part5	*part4	*part4	*part3	*part3	*part2	*part2	*part2	*part1	*part1	*part1
*staff6	*staff6	*staff5	*staff4	*	*staff3	*	*staff2	*staff2	*staff2	*staff1	*staff1	*staff1
*I"Organo	*	*I"Violone	*I"Violino 2do	*	*I"Violino 1mo	*	*I"Baſso	*	*	*I"Canto	*	*
*I'org	*	*I'vlne	*I'vl 2	*	*I'vl 1	*	*I'B	*	*	*I'S	*	*
*Iorgan	*	*Iviolb	*Ivioln	*	*Ivioln	*	*Ibass	*	*	*Isoprn	*	*
*ICklav	*	*ICstr	*ICstr	*	*ICstr	*	*ICvox	*	*	*ICvox	*	*
*clefF4	*	*clefF4	*clefG2	*	*clefG2	*	*clefF4	*	*	*clefC1	*	*
*k[b-]	*	*k[b-]	*k[b-]	*	*k[b-]	*	*k[b-]	*	*	*k[b-]	*	*
*F:	*	*F:	*F:	*	*F:	*	*F:	*	*	*F:	*	*
*M6/4	*	*M6/4	*M6/4	*	*M6/4	*	*M6/4	*	*	*M6/4	*	*
=1	=1	=1	=1	=1	=1	=1	=1	=1	=1	=1	=1	=1
*2\right	*	*2\right	*	*	*	*	*	*	*	*	*	*
!	!	!	!	!	!	!	!LO:TX:a:t=11.	!	!	!LO:TX:a:t=11	!	!
2F\	.	2F\	8ff\L	.	8aa\L	.	00.r	.	.	00.r	.	.
.	.	.	8gg\J	.	8bb-\J	.	.	.	.	.	.	.
.	.	.	4aa\	.	4ccc\	.	.	.	.	.	.	.
4r	.	4r	4ff\	.	4aa\	.	.	.	.	.	.	.
4C/	.	4C/	4ee\	.	4gg\	.	.	.	.	.	.	.
4F\	.	4F\	4ff\	.	4aa\	.	.	.	.	.	.	.
4FF/	.	4FF/	4r	.	4r	.	.	.	.	.	.	.
*clefC1	*	*	*	*	*	*	*	*	*	*	*	*
=2	=2	=2	=2	=2	=2	=2	=2	=2	=2	=2	=2	=2
*^	*	*	*	*	*	*	*	*	*	*	*	*
!	!	!	!LO:TX:a:t=1	!LO:TX:a:t=1	!	!LO:TX:a:t=1	!	!	!	!	!	!	!
8a/L	8f\L	.	1.r	1.r	.	1.r	.	.	.	.	.	.	.
8b-/J	8g\J	.	.	.	.	.	.	.	.	.	.	.	.
4cc/	4a\	.	.	.	.	.	.	.	.	.	.	.	.
4a/	4f\	.	.	.	.	.	.	.	.	.	.	.	.
4g/	4e\	.	.	.	.	.	.	.	.	.	.	.	.
4a/	4f\	.	.	.	.	.	.	.	.	.	.	.	.
4r	4ryy	.	.	.	.	.	.	.	.	.	.	.	.
*v	*v	*	*	*	*	*	*	*	*	*	*	*	*
*clefF4	*	*	*	*	*	*	*	*	*	*	*	*
=3	=3	=3	=3	=3	=3	=3	=3	=3	=3	=3	=3	=3
2F\	.	2F\	8f/L	.	8a/L	.	.	.	.	.	.	.
.	.	.	8g/J	.	8b-/J	.	.	.	.	.	.	.
.	.	.	4a/	.	4cc\	.	.	.	.	.	.	.
4r	.	4r	4f/	.	4a/	.	.	.	.	.	.	.
4C/	.	4C/	4e/	.	4g/	.	.	.	.	.	.	.
4F\	.	4F\	4f/	.	4a/	.	.	.	.	.	.	.
4FF/	.	4FF/	4r	.	4r	.	.	.	.	.	.	.
=4	=4	=4	=4	=4	=4	=4	=4	=4	=4	=4	=4	=4
2F\	.	2F\	8a/L	.	8cc\L	.	.	.	.	.	.	.
.	.	.	8g/J	.	8b-\J	.	.	.	.	.	.	.
.	.	.	4f/	.	4a/	.	.	.	.	.	.	.
4r	.	4r	4a/	.	4cc\	.	.	.	.	.	.	.
4BB-/	6	4BB-/	8g/L	.	8b-/L	.	.	.	.	.	.	.
.	.	.	8f/J	.	8a/J	.	.	.	.	.	.	.
4C/	.	4C/	4e/	.	4g/	.	.	.	.	.	.	.
4r	.	4r	4ee\	.	4gg\	.	.	.	.	.	.	.
=5	=5	=5	=5	=5	=5	=5	=5	=5	=5	=5	=5	=5
2F\	.	2F\	8ff\L	.	8aa\L	.	00.r	.	.	00.r	.	.
.	.	.	8aa\J	.	8ccc\J	.	.	.	.	.	.	.
.	.	.	8aa\L	.	8ccc\L	.	.	.	.	.	.	.
.	.	.	16gg\L	.	16bb-\L	.	.	.	.	.	.	.
.	.	.	16ff\JJ	.	16aa\JJ	.	.	.	.	.	.	.
4r	.	4r	4gg\	.	4bb-\	.	.	.	.	.	.	.
2C/	7	2C/	8ee\L	.	8gg\L	.	.	.	.	.	.	.
.	.	.	8gg\J	.	8bb-\J	.	.	.	.	.	.	.
.	.	.	8gg\L	.	8bb-\L	.	.	.	.	.	.	.
.	.	.	16ff\L	.	16aa\L	.	.	.	.	.	.	.
.	.	.	16ee\JJ	.	16gg\JJ	.	.	.	.	.	.	.
4r	.	4r	4ff\	.	4aa\	.	.	.	.	.	.	.
=6	=6	=6	=6	=6	=6	=6	=6	=6	=6	=6	=6	=6
*clefC1	*	*	*	*	*	*	*	*	*	*	*	*
*^	*	*	*	*	*	*	*	*	*	*	*	*
*	*	*	*	*	*	*custos:a	*	*	*	*	*	*	*
!	!	!	!LO:TX:a:t=1	!LO:TX:a:t=1	!	!LO:TX:a:t=1	!	!	!	!	!	!	!
8a/L	8f\L	.	1.r	1.r	.	1.r	.	.	.	.	.	.	.
8cc/J	8a\J	.	.	.	.	.	.	.	.	.	.	.	.
=-	=-	=-	=-	=-	=-	=-	=-	=-	=-	=-	=-	=-	=-
8cc/L	8a\L	.	.	.	.	.	.	.	.	.	.	.	.
16b-/L	16g\L	.	.	.	.	.	.	.	.	.	.	.	.
16a/JJ	16f\JJ	.	.	.	.	.	.	.	.	.	.	.	.
4b-/	4g\	.	.	.	.	.	.	.	.	.	.	.	.
8g/L	8e\L	.	.	.	.	.	.	.	.	.	.	.	.
8b-/J	8g\J	.	.	.	.	.	.	.	.	.	.	.	.
8b-/L	8g\L	.	.	.	.	.	.	.	.	.	.	.	.
16a/L	16f\L	.	.	.	.	.	.	.	.	.	.	.	.
16g/JJ	16e\JJ	.	.	.	.	.	.	.	.	.	.	.	.
4a/	4f\	.	.	.	.	.	.	.	.	.	.	.	.
*v	*v	*	*	*	*	*	*	*	*	*	*	*	*
*clefF4	*	*	*	*	*	*	*	*	*	*	*	*
!	!	!	!	!	!LO:LB:g=original	!	!	!	!	!	!	!
=7	=7	=7	=7	=7	=7	=7	=7	=7	=7	=7	=7	=7
2F\	.	2F\	8f/L	.	8a\L	.	.	.	.	.	.	.
.	.	.	8a/J	.	8cc\J	.	.	.	.	.	.	.
.	.	.	8a/L	.	8cc\L	.	.	.	.	.	.	.
.	.	.	16g/L	.	16b-\L	.	.	.	.	.	.	.
.	.	.	16f/JJ	.	16a\JJ	.	.	.	.	.	.	.
*	*	*	*custos:e	*	*	*	*	*	*	*	*	*
4r	.	4r	4g/	.	4b-/	.	.	.	.	.	.	.
!	!	!	!LO:LB:g=original	!	!	!	!	!	!	!	!	!
=-	=-	=-	=-	=-	=-	=-	=-	=-	=-	=-	=-	=-
4C/	7	4C/	8e/L	.	8g/L	.	.	.	.	.	.	.
.	.	.	8g/J	.	8b-/J	.	.	.	.	.	.	.
4r	.	4r	8g/L	.	8b-/L	.	.	.	.	.	.	.
.	.	.	16f/L	.	16a/L	.	.	.	.	.	.	.
.	.	.	16e/JJ	.	16g/JJ	.	.	.	.	.	.	.
4F\	.	4F\	4f/	.	4a/	.	.	.	.	.	.	.
=8	=8	=8	=8	=8	=8	=8	=8	=8	=8	=8	=8	=8
!LO:TX:a:t=1	!	!	!	!	!	!	!	!	!	!	!	!
1.C	.	1.C	[>2.c/	.	8g/L	.	.	.	.	.	.	.
.	.	.	.	.	8f/	.	.	.	.	.	.	.
.	.	.	.	.	8e/	.	.	.	.	.	.	.
!	!	!	!	!	!LO:TX:t=P:problem=mixed beam	!	!	!	!	!	!	!
.	.	.	.	.	8c/	.	.	.	.	.	.	.
.	.	.	.	.	8cc\	.	.	.	.	.	.	.
.	.	.	.	.	8b-\J	.	.	.	.	.	.	.
.	.	.	2.c/]	.	8a/L	.	.	.	.	.	.	.
.	.	.	.	.	16g/L	.	.	.	.	.	.	.
.	.	.	.	.	16f/JJ	.	.	.	.	.	.	.
.	.	.	.	.	8e/L	.	.	.	.	.	.	.
!	!	!	!	!	!LO:TX:t=P:problem=mixed beam	!	!	!	!	!	!	!
.	.	.	.	.	8c/	.	.	.	.	.	.	.
.	.	.	.	.	8cc\	.	.	.	.	.	.	.
!	!	!	!	!	!LO:TX:a:t=vi	!	!	!	!	!	!	!
.	.	.	.	.	8b-\J	.	.	.	.	.	.	.
!	!	!LO:LB:g=original	!	!	!	!	!	!	!	!	!	!
=9	=9	=9	=9	=9	=9	=9	=9	=9	=9	=9	=9	=9
!	!	!	!	!	!LO:TX:a:t=de	!	!	!	!	!	!	!
2F\	.	2F\	8f/L	.	8a/L	.	0.r	.	.	0.r	.	.
.	.	.	8e/	.	8g/	.	.	.	.	.	.	.
.	.	.	8f/	.	8a/	.	.	.	.	.	.	.
.	.	.	8a/J	.	8cc/J	.	.	.	.	.	.	.
4r	.	4r	8g/L	.	8b-/L	.	.	.	.	.	.	.
.	.	.	16f/L	.	16a/L	.	.	.	.	.	.	.
.	.	.	16e/JJ	.	16g/JJ	.	.	.	.	.	.	.
2F\	.	2F\	8f/L	.	8a/L	.	.	.	.	.	.	.
.	.	.	8e/	.	8g/	.	.	.	.	.	.	.
.	.	.	8f/	.	8a/	.	.	.	.	.	.	.
.	.	.	8a/J	.	8cc/J	.	.	.	.	.	.	.
4r	.	4r	8g/L	.	8b-/L	.	.	.	.	.	.	.
.	.	.	16f/L	.	16a/L	.	.	.	.	.	.	.
.	.	.	16e/JJ	.	16g/JJ	.	.	.	.	.	.	.
=10	=10	=10	=10	=10	=10	=10	=10	=10	=10	=10	=10	=10
4F\	.	4F\	8f/L	.	8a/L	.	.	.	.	.	.	.
.	.	.	8e/J	.	8g/J	.	.	.	.	.	.	.
4r	.	4r	4f/	.	4a/	.	.	.	.	.	.	.
4FF/	.	4FF/	4r	.	4r	.	.	.	.	.	.	.
4r	.	4r	8ff\L	.	8aa\L	.	.	.	.	.	.	.
.	.	.	8ee\J	.	8gg\J	.	.	.	.	.	.	.
4r	.	4r	4ff\	.	4aa\	.	.	.	.	.	.	.
4FF/	.	4FF/	4r	.	4r	.	.	.	.	.	.	.
=11	=11	=11	=11	=11	=11	=11	=11	=11	=11	=11	=11	=11
8F\L	8	8F\L	8f/L	.	8ff\L	.	1.r	.	.	1.r	.	.
16E\L	8	16E\L	16e/L	.	16ee\L	.	.	.	.	.	.	.
16D\JJ	8	16D\JJ	16d/JJ	.	16dd\JJ	.	.	.	.	.	.	.
4C/	8	4C/	4c/	.	4cc\	.	.	.	.	.	.	.
8BB-/L	8	8BB-/L	8B-/L	.	8b-/L	.	.	.	.	.	.	.
8GG/J	8	8GG/J	8G/J	.	8g/J	.	.	.	.	.	.	.
!	!	!	!	!	!LO:TX:t=P:problem=mixed beam	!	!	!	!	!	!	!
8C/L	8	8C/L	8c/L	.	8cc\L	.	.	.	.	.	.	.
8CC/J	8	8CC/J	8c/J	.	8c/J	.	.	.	.	.	.	.
4FF/	8	4FF/	4f/	.	4f/	.	.	.	.	.	.	.
4r	.	4r	4r	.	4r	.	.	.	.	.	.	.
!LO:LB:g=original	!	!	!	!	!	!	!	!	!	!	!	!
=12	=12	=12	=12	=12	=12	=12	=12	=12	=12	=12	=12	=12
!LO:TX:b:i:t=Canto	!	!	!	!LO:DY:b:t=piano	!	!LO:DY:b:t=piano	!	!	!	!	!	!
2F\	.	2F\	8ff\L	p	8aa\L	p	(>8F\L	Cae-	Ri-	8a\L	Cae-	Ri-
.	.	.	8gg\J	.	8bb-\J	.	8G\J)	.	.	8b-\J	.	.
.	.	.	4aa\	.	4ccc\	.	4A\	.	.	4cc\	.	.
4r	.	4r	4ff\	.	4aa\	.	4F\	-li	-dent	4a\	-li	-dent
!LO:TX:b:i:t=Baſso	!	!	!	!	!	!	!	!	!	!	!	!
4C/	.	4C/	4ee\	.	4gg\	.	4E\	ro-	sa-	4g/	ro-	sa-
4F\	.	4F\	4ff\	.	4aa\	.	4F\	-res	-ta	4a\	-res	-ta
4r	.	4r	4r	.	4r	.	4r	.	.	4r	.	.
*clefC1	*	*	*	*	*	*	*	*	*	*	*	*
!	!	!	!	!	!LO:LB:g=original	!	!	!	!	!	!	!
=13	=13	=13	=13	=13	=13	=13	=13	=13	=13	=13	=13	=13
*^	*	*	*	*	*	*	*	*	*	*	*	*
!	!	!	!	!LO:TX:a:t=1	!	!LO:TX:a:t=1	!	!LO:TX:a:t=1	!	!	!LO:TX:a:t=1	!	!
8a/L	8f\L	.	2r	1.r	.	1.r	.	1.r	.	.	1.r	.	.
8b-/J	8g\J	.	.	.	.	.	.	.	.	.	.	.	.
4cc/	4a\	.	.	.	.	.	.	.	.	.	.	.	.
4a/	4f\	.	4r	.	.	.	.	.	.	.	.	.	.
4g/	4e\	.	4r	.	.	.	.	.	.	.	.	.	.
4a/	4f\	.	4r	.	.	.	.	.	.	.	.	.	.
*clefF4	*	*	*	*	*	*	*	*	*	*	*	*	*
4F\	4ryy	.	4F\	.	.	.	.	.	.	.	.	.	.
*v	*v	*	*	*	*	*	*	*	*	*	*	*	*
=14	=14	=14	=14	=14	=14	=14	=14	=14	=14	=14	=14	=14
2F\	.	2F\	8f/L	.	8a/L	.	8F\L	flu-	vi-	8a\L	flu-	vi-
.	.	.	8g/J	.	8b-/J	.	8G\J	.	.	8b-\J	.	.
.	.	.	4a/	.	4cc\	.	4A\	.	.	4cc\	.	.
4r	.	4r	4f/	.	4a/	.	4F\	-unt	-rent	4a\	-unt	-rent
!	!	!	!LO:LB:g=original	!	!	!	!	!	!	!	!	!
=-	=-	=-	=-	=-	=-	=-	=-	=-	=-	=-	=-	=-
4C/	.	4C/	4e/	.	4g/	.	4C/	flo-	pra-	4g/	flo-	pra-
4F\	.	4F\	4f/	.	4a/	.	4F\	-res	-ta	4a\	-res	-ta
4r	.	4r	4r	.	4r	.	4r	.	.	4r	.	.
=15	=15	=15	=15	=15	=15	=15	=15	=15	=15	=15	=15	=15
!	!	!	!LO:N:vis=2	!	!LO:N:vis=2	!	!	!	!	!	!	!
4F\	.	4F\	2.r	.	2.r	.	8A\	et	no-	8cc\	et	no-
.	.	.	.	.	.	.	8G\	ter-	-stro	8b-\	ter-	-stro
4r	.	4r	.	.	.	.	4F\	-ras	Re-	4a\	-ras	Re-
4r	.	4r	.	.	.	.	4A\	in-	-gi	4cc\	in-	-gi
!	!	!	!	!	!	!	!	!	!	!LO:LB:g=original	!	!
=-	=-	=-	=-	=-	=-	=-	=-	=-	=-	=-	=-	=-
4BB-/	6	4BB-/	4r	.	4r	.	8G\	-e-	par-	8b-\	-e-	par-
.	.	.	.	.	.	.	8F\	-bri-	-vu-	8a\	-bri-	-vu-
!	!	!	!	!	!	!	!LO:LB:g=original	!	!	!	!	!
=-	=-	=-	=-	=-	=-	=-	=-	=-	=-	=-	=-	=-
4C/	.	4C/	4r	.	4r	.	4C/	-ant	-lo	4g/	-ant	-lo
*	*	*custos:F	*	*	*	*	*	*	*	*	*	*
!	!	!	!	!LO:DY:b:t=forte	!	!LO:DY:b:t=forte	!	!	!	!	!	!
4r	.	4r	4ee\	f	4gg\	f	4r	.	.	4r	.	.
!	!	!LO:LB:g=original	!	!	!	!	!	!	!	!	!	!
=16	=16	=16	=16	=16	=16	=16	=16	=16	=16	=16	=16	=16
!	!	!	!	!	!	!	!LO:TX:a:t=1	!	!	!LO:TX:a:t=1	!	!
4F\	.	4F\	8ff\L	.	8aa\L	.	1.r	.	.	1.r	.	.
.	.	.	8aa\J	.	8ccc\J	.	.	.	.	.	.	.
4r	.	4r	8aa\L	.	8ccc\L	.	.	.	.	.	.	.
.	.	.	16gg\L	.	16bb-\L	.	.	.	.	.	.	.
.	.	.	16ff\JJ	.	16aa\JJ	.	.	.	.	.	.	.
4r	.	4r	4gg\	.	4bb-\	.	.	.	.	.	.	.
4C/	7	4C/	8ee\L	.	8gg\L	.	.	.	.	.	.	.
.	.	.	8gg\J	.	8bb-\J	.	.	.	.	.	.	.
4r	.	4r	8gg\L	.	8bb-\L	.	.	.	.	.	.	.
.	.	.	16ff\L	.	16aa\L	.	.	.	.	.	.	.
.	.	.	16ee\JJ	.	16gg\JJ	.	.	.	.	.	.	.
4r	.	4r	4ff\	.	4aa\	.	.	.	.	.	.	.
=17	=17	=17	=17	=17	=17	=17	=17	=17	=17	=17	=17	=17
!LO:TX:b:i:t=Canto	!	!	!LO:TX:a:t=3	!	!LO:TX:a:t=3	!	!	!	!	!	!	!
8F\L	8	8F\L	0.r	.	0.r	.	8F\	et	no-	8ff\	et	no-
16E\L	8	16E\L	.	.	.	.	(16E\LL	ter-	-stro-	(16ee\LL	ter-	-stro-
16D\JJ	8	16D\JJ	.	.	.	.	16D\JJ)	.	.	16dd\JJ)	.	.
!LO:TX:b:i:t=Baſso	!	!	!	!	!	!	!	!	!	!	!	!
4C/	8	4C/	.	.	.	.	4C/	-ras	-Re-	4cc\	-ras	-Re-
4F\	8	4F\	.	.	.	.	4F\	in-	-gi	4f/	in-	-gi
!LO:TX:t=P:problem=mixed beam	!	!LO:TX:t=P:problem=mixed beam	!	!	!	!	!	!	!	!	!	!
8c\L	8	8c\L	.	.	.	.	8c\	-e-	par-	8cc\	-e-	par-
8C/J	8	8C/J	.	.	.	.	8C/	-bri-	-vu-	8c/	-bri-	-vu-
4F\	8	4F\	.	.	.	.	8F\	-ant	-lo	8f/	-ant	-lo
.	.	.	.	.	.	.	8F\	in-	par-	8f/	in-	par-
!	!	!	!	!	!	!	!	!	!	!LO:LB:g=original	!	!
=-	=-	=-	=-	=-	=-	=-	=-	=-	=-	=-	=-	=-
4r	.	4r	.	.	.	.	8c\	-e-	-vu-	8cc\	-e-	-vu-
.	.	.	.	.	.	.	8C/	-bri	-lo	8c/	-bri	-lo
=18	=18	=18	=18	=18	=18	=18	=18	=18	=18	=18	=18	=18
*	*	*	*	*	*	*	*	*	*ij	*	*	*ij
!	!	!	!	!	!	!	!	!	!	!LO:TX:t=P:problem=mixed beam	!	!
2F\	.	2F\	.	.	.	.	8F\L	ant	no-	8f/L	ant	no-
*	*	*	*	*	*	*	*	*ij	*	*	*ij	*
.	.	.	.	.	.	.	8A\J	et	-stro	8cc\J	et	-stro
.	.	.	.	.	.	.	8A\L	ter-	Re-	8cc\L	ter-	Re-
.	.	.	.	.	.	.	16G\L	.	-gi	16b-\L	.	-gi
.	.	.	.	.	.	.	16F\JJ	.	.	16a\JJ	.	.
4r	.	4r	.	.	.	.	8G\L	-ras	par-	8b-\L	-ras	par-
.	.	.	.	.	.	.	8F\J	in-	-vu-	8a\J	in-	-vu-
2C/	7	2C/	.	.	.	.	8E\L	-e-	-lo	8g\L	-e-	-lo
.	.	.	.	.	.	.	8G\J	.	par-	8b-\J	.	par-
.	.	.	.	.	.	.	8G\L	-bri-	-vu-	8b-\L	-bri-	-vu-
.	.	.	.	.	.	.	16F\L	.	.	16a\L	.	.
.	.	.	.	.	.	.	16E\JJ	.	.	16g\JJ	.	.
4r	.	4r	.	.	.	.	4F\	-ant	-los	4a\	-ant	-lo
*	*	*	*	*	*	*	*	*Xij	*Xij	*	*Xij	*Xij
!LO:LB:g=original	!	!	!	!	!	!	!	!	!	!	!	!
=19	=19	=19	=19	=19	=19	=19	=19	=19	=19	=19	=19	=19
4F\	.	4F\	1.r	.	1.r	.	8F\	et	no-	8a\	et	no-
.	.	.	.	.	.	.	8G\	ter-	.	8b-\	ter-	-stro
4r	.	4r	.	.	.	.	4A\	-ras	-stro	4cc\	-ras	Re-
4r	.	4r	.	.	.	.	4r	.	.	4f/	in-	-gi
!LO:N:vis=2	!	!	!	!	!	!	!	!	!	!	!	!
2.rBB	.	2.rBB	.	.	.	.	4r	.	.	8cc\	-e-	par-
.	.	.	.	.	.	.	.	.	.	8c/	-bri-	-vu-
.	.	.	.	.	.	.	4r	.	.	4f/	-ant	-lo
.	.	.	.	.	.	.	4F\	in-	par-	4r	.	.
!	!	!	!	!	!	!	!LO:LB:g=original	!	!	!	!	!
=20-	=20	=20-	=20-	=20	=20	=20	=20	=20	=20	=20	=20	=20
!LO:TX:a:t=1	!	!LO:TX:a:t=1	!LO:N:vis=2	!	!	!	!	!	!	!LO:TX:a:t=3	!	!
1.r	.	1.r	2.r	.	4r	.	8c\	-e-	-vu-	0.r	.	.
.	.	.	.	.	.	.	8C/	-bri-	.	.	.	.
.	.	.	.	.	4r	.	4F\	-ant	-lo	.	.	.
.	.	.	.	.	4f/	.	1r	.	.	.	.	.
!	!	!	!	!	!LO:TX:t=P:problem=mixed beam	!	!	!	!	!	!	!
.	.	.	4r	.	8cc\L	.	.	.	.	.	.	.
.	.	.	.	.	8c/J	.	.	.	.	.	.	.
.	.	.	4r	.	4f/	.	.	.	.	.	.	.
.	.	.	4f/	.	4r	.	.	.	.	.	.	.
=21	=21	=21	=21	=21	=21	=21	=21	=21	=21	=21	=21	=21
!	!	!	!LO:TX:t=P:problem=mixed beam	!	!	!	!LO:TX:a:t=2	!	!	!	!	!
!	!	!	!	!	!LO:N:vis=2	!	!	!	!	!	!	!
4r	.	4r	8cc\L	.	2.r	.	0.r	.	.	.	.	.
.	.	.	8c/J	.	.	.	.	.	.	.	.	.
4r	.	4r	4f/	.	.	.	.	.	.	.	.	.
4F\	8	4F\	4r	.	.	.	.	.	.	.	.	.
!LO:TX:t=P:problem=mixed beam	!	!LO:TX:t=P:problem=mixed beam	!	!	!	!	!	!	!	!	!	!
8c\L	8	8c\L	4r	.	4r	.	.	.	.	.	.	.
8C/J	8	8C/J	.	.	.	.	.	.	.	.	.	.
4F\	8	4F\	4r	.	4r	.	.	.	.	.	.	.
4r	.	4r	4ff\	.	4aa\	.	.	.	.	.	.	.
=22	=22	=22	=22	=22	=22	=22	=22	=22	=22	=22	=22	=22
2C/	6 4	2C/	8ff\L	.	8aa\L	.	.	.	.	1.r	.	.
.	.	.	16ee\L	.	16gg\L	.	.	.	.	.	.	.
.	.	.	16dd\JJ	.	16ff\JJ	.	.	.	.	.	.	.
.	.	.	4ee\	.	4gg\	.	.	.	.	.	.	.
4r	x 3	4r	4r	.	4r	.	.	.	.	.	.	.
2G\	.n	2G\	2g/	.	2g/	.	.	.	.	.	.	.
4r	.	4r	4dd\	.	4ff\	.	.	.	.	.	.	.
!	!	!	!	!	!LO:LB:g=original	!	!	!	!	!	!	!
=23	=23	=23	=23	=23	=23	=23	=23	=23	=23	=23	=23	=23
!	!	!	!	!	!	!	!	!	!	!LO:N:vis=2	!	!
4G\	7 n	4G\	8dd\L	.	8ff\L	.	2.r	.	.	2.r	.	.
.	.	.	16cc\L	.	16ee\L	.	.	.	.	.	.	.
.	.	.	16bn\JJ	.	16dd\JJ	.	.	.	.	.	.	.
4C/	.	4C/	4cc\	.	4ee\	.	.	.	.	.	.	.
4r	.	4r	4r	.	4r	.	.	.	.	.	.	.
*	*	*	*	*	*	*	*2\right	*	*	*2\right	*	*
!LO:TX:b:i:t=Can Baſ.	!	!	!	!	!LO:N:vis=2	!	!	!	!	!	!	!
!	!	!	!LO:N:vis=2	!	!	!	!	!	!	!	!	!
2C/	.	2C/	2.r	.	2.r	.	2c\	Dul-	gau-	2ee\	Dul-	gau-
4r	.	4r	.	.	.	.	4c\	-ce	-dent	4ee\	-ce	-dent
!	!	!LO:LB:g=original	!	!	!	!	!	!	!	!	!	!
=24	=24	=24	=24	=24	=24	=24	=24	=24	=24	=24	=24	=24
!	!	!	!LO:TX:a:t=1	!	!LO:TX:a:t=1	!	!	!	!	!	!	!
!	!	!	!LO:N:vis=1	!	!LO:N:vis=1	!	!	!	!	!	!	!
4G\	6 4	4G\	1.r	.	1.r	.	8c\L	me-	mon-	8ee\L	me-	mon-
.	.	.	.	.	.	.	16Bn\L	.	.	16dd\L	.	.
.	.	.	.	.	.	.	16A\JJ	.	.	16cc\JJ	.	.
4GG/	n	4GG/	.	.	.	.	4Bn\	-los	-tes	4dd\	-los	-tes
4r	.	4r	.	.	.	.	4r	.	.	4r	.	.
!	!	!	!	!	!	!	!	!	!	!LO:LB:g=original	!	!
=-	=-	=-	=-	=-	=-	=-	=-	=-	=-	=-	=-	=-
2G\	n	2G\	.	.	.	.	2G\	im-	sal-	2g/	im-	sal-
4r	.	4r	.	.	.	.	4d\	-plet	-tant	4ff\	-plet	-tant
=25	=25	=25	=25	=25	=25	=25	=25	=25	=25	=25	=25	=25
*	*	*	*^	*	*^	*	*	*	*	*	*	*
4c\	4 2	4c\	4r	4ryy	.	4r	4ryy	.	8d\L	cae-	fon-	8ff\L	cae-	fon-
.	.	.	.	.	.	.	.	.	16c\L	.	.	16ee\L	.	.
.	.	.	.	.	.	.	.	.	16Bn\JJ	.	.	16dd\JJ	.	.
4C/	3	4C/	4r	4ryy	.	4r	4ryy	.	4c\	-los	-tes	4ee\	-los	-tes
4r	.	4r	4cc\	4ryy	.	4ee\	4ryy	.	4r	.	.	4r	.	.
!	!	!	!LO:LB:g=original	!	!	!	!	!	!	!	!	!	!	!
=-	=-	=-	=-	=-	=-	=-	=-	=-	=-	=-	=-	=-	=-	=-
*	*	*	*	*2\right	*	*	*2\right	*	*	*	*	*	*	*
2G\	n	2G\	[>2.d/	2.G\	.	[>2.d/	2.G\	.	[>2.G\	cae-	fon-	8dd\L	dul-	ga-
.	.	.	.	.	.	.	.	.	.	.	.	8cc\J	.	.
.	.	.	.	.	.	.	.	.	.	.	.	8bn\	-ce	-dent
.	.	.	.	.	.	.	.	.	.	.	.	8g/	me-	mon-
4r	.	4r	.	.	.	.	.	.	.	.	.	8gg\	.	.
.	.	.	.	.	.	.	.	.	.	.	.	8ff\	-los	-tes
=26	=26	=26	=26	=26	=26	=26	=26	=26	=26	=26	=26	=26	=26	=26
2G\	_	2G\	2.d/_>	2.G\	.	2.d/_>	2.G\	.	2G\]	.	.	8ee\L	im-	sal-
.	.	.	.	.	.	.	.	.	.	.	.	16dd\L	.	.
.	.	.	.	.	.	.	.	.	.	.	.	16cc\JJ	.	.
.	.	.	.	.	.	.	.	.	.	.	.	8bn\	.	-tant
.	.	.	.	.	.	.	.	.	.	.	.	8g/	-plet	fon-
4r	x	4r	.	.	.	.	.	.	4G\	-los	-tes	8gg\	cae-	.
.	.	.	.	.	.	.	.	.	.	.	.	8ff\	-los	-tes
2G\	n	2G\	2.d/_>	2.G\	.	2.d/_>	2.G\	.	8D/L	dul-	gau-	2.gg\	cae-	fon-
.	.	.	.	.	.	.	.	.	8C/J	.	.	.	.	.
.	.	.	.	.	.	.	.	.	8BBn/	.	.	.	.	.
.	.	.	.	.	.	.	.	.	8GG/	-ce	-dent	.	.	.
!	!	!	!	!	!	!	!	!	!LO:LB:g=original	!	!	!	!	!
=-	=-	=-	=-	=-	=-	=-	=-	=-	=-	=-	=-	=-	=-	=-
4r	.	4r	.	.	.	.	.	.	8G\	me-	mon-	.	.	.
.	.	.	.	.	.	.	.	.	8F\	-los	-tes	.	.	.
=27	=27	=27	=27	=27	=27	=27	=27	=27	=27	=27	=27	=27	=27	=27
2G\	_	2G\	2.d/]	2.G\	.	2.d/]	2.G\	.	8E\L	im-	sal-	2g/	.	-tes
.	.	.	.	.	.	.	.	.	16D\L	.	.	.	.	.
.	.	.	.	.	.	.	.	.	16C\JJ	.	.	.	.	.
.	.	.	.	.	.	.	.	.	8BBn/	.	.	.	.	.
.	.	.	.	.	.	.	.	.	8GG/	-plet	-tant	.	.	.
4r	x	4r	.	.	.	.	.	.	8G\	cae-	fon-	4g/	-los	ma-
.	.	.	.	.	.	.	.	.	8F\	-los	-tes	.	.	.
!	!	!	!LO:N:vis=2	!	!	!LO:N:vis=2	!	!	!	!	!	!	!	!
4C/	.	4C/	2.r	4ryy	.	2.r	4ryy	.	8C/	an-	ma-	8e/	an-	-gno
.	.	.	.	.	.	.	.	.	8D/	-ge-	-gno	8f/	-ge-	.
4r	.	4r	.	2ryy	.	.	2ryy	.	4E\	-li	mun-	4g/	-li	mun-
!	!	!	!	!	!	!	!	!	!	!	!	!LO:LB:g=original	!	!
=-	=-	=-	=-	=-	=-	=-	=-	=-	=-	=-	=-	=-	=-	=-
4r	.	4r	.	.	.	.	.	.	4F\	con	-di	4a\	con	-di
*	*	*	*v	*v	*	*	*	*	*	*	*	*	*	*
*	*	*	*	*	*v	*v	*	*	*	*	*	*	*
=28	=28	=28	=28	=28	=28	=28	=28	=28	=28	=28	=28	=28
!	!	!	!LO:TX:a:t=4	!	!LO:TX:a:t=3	!	!	!	!	!	!	!
2G\	n	2G\	00.r	.	0.r	.	4.G\	iu-	Do-	4.d/	iu-	Do-
.	.	.	.	.	.	.	8GG/	-bi-	-mi-	8f/	-bi-	-mi-
4C/	.	4C/	.	.	.	.	8C/L	-lant	-no	8e/L	-lant	-no
.	.	.	.	.	.	.	8D/J	.	.	8f/J	.	.
!LO:LB:g=original	!	!	!	!	!	!	!	!	!	!	!	!
=-	=-	=-	=-	=-	=-	=-	=-	=-	=-	=-	=-	=-
*	*	*	*	*	*	*	*	*ij	*ij	*	*ij	*ij
4C/	.	4C/	.	.	.	.	8E\L	dul-	gau-	8g/L	dul-	gau-
.	.	.	.	.	.	.	8D\	.	.	8f/	.	.
4r	.	4r	.	.	.	.	8E\	-ce	-dent	8g/	-ce	-dent
.	.	.	.	.	.	.	8C\J	.	.	8e/J	.	.
4r	.	4r	.	.	.	.	8F\L	me-	mon-	8a\L	me-	mon-
.	.	.	.	.	.	.	16E\L	-los	-tes	16g\L	-los	-tes
.	.	.	.	.	.	.	16D\JJ	.	.	16f\JJ	.	.
!	!	!	!	!	!	!	!LO:LB:g=original	!	!	!	!	!
=29	=29	=29	=29	=29	=29	=29	=29	=29	=29	=29	=29	=29
4C/	.	4C/	.	.	.	.	8C/L	im-	sal-	8e/L	im-	sal-
.	.	.	.	.	.	.	8D/	.	.	8f/	.	.
4r	.	4r	.	.	.	.	8E/	-plet	-tant	8g/	-plet	-tant
.	.	.	.	.	.	.	8C/J	.	.	8e/J	.	.
4r	.	4r	.	.	.	.	8F\L	cae-	fon-	8a\L	cae-	fon-
.	.	.	.	.	.	.	16E\L	-los	-tes	16g\L	-los	-tes
.	.	.	.	.	.	.	16D\JJ	.	.	16f\JJ	.	.
*	*	*	*	*	*	*	*	*Xij	*Xij	*	*Xij	*Xij
4C/	.	4C/	.	.	.	.	8C/	an-	mag-	8e/	an-	mag-
.	.	.	.	.	.	.	8D/	-ge-	-no	8f/	-ge-	-no
4r	.	4r	.	.	.	.	4E\	-li	mun-	4g/	-li	mun-
4r	.	4r	.	.	.	.	4C/	con	-di	4cc\	con	-di
=30	=30	=30	=30	=30	=30	=30	=30	=30	=30	=30	=30	=30
2GG/	4nr	2GG/	.	.	1.r	.	4.G\	iu-	Do-	4.cc\	iu-	do-
.	.	.	.	.	.	.	8GG/	-bi-	-mi-	8bn\	-bi-	-mi-
4C/	.	4C/	.	.	.	.	4C/	-lant	-no	4cc\	-lant	-no
!	!	!	!	!	!	!	!LO:TX:a:t=1/2	!	!	!	!	!
!	!	!LO:N:vis=2	!	!	!	!	!LO:N:vis=2	!	!	!	!	!
2.r	.	2.r	.	.	.	.	2.r	.	.	4.gg\	iu-	do-
.	.	.	.	.	.	.	.	.	.	8g/	-bi-	-mi-
.	.	.	.	.	.	.	.	.	.	4cc\	-lant	-no
=31-	=31	=31-	=31	=31	=31	=31	=31	=31	=31	=31	=31	=31
!LO:TX:a:t=1	!	!LO:TX:a:t=1	!	!	!LO:N:vis=2	!	!	!	!	!LO:TX:a:t=4	!	!
1.r	.	1.r	.	.	2.r	.	4.G\	iu-	Do-	00.r	.	.
.	.	.	.	.	.	.	8GG/	-bi-	-mi-	.	.	.
.	.	.	.	.	.	.	4C/	-lant	-no	.	.	.
!	!	!	!	!	!	!	!LO:TX:a:t=1/2	!	!	!	!	!
!	!	!	!	!	!	!	!LO:N:vis=2	!	!	!	!	!
.	.	.	.	.	4.gg\	.	2.r	.	.	.	.	.
.	.	.	.	.	8g/	.	.	.	.	.	.	.
.	.	.	.	.	4cc\	.	.	.	.	.	.	.
=32	=32	=32-	=32	=32	=32	=32	=32	=32	=32	=32	=32	=32
!LO:N:vis=2	!	!	!	!	!LO:N:vis=2	!	!LO:TX:a:t=3	!	!	!	!	!
2.r	.	2.r	4.gg\	.	2.r	.	0.r	.	.	.	.	.
.	.	.	8g/	.	.	.	.	.	.	.	.	.
.	.	.	4cc\	.	.	.	.	.	.	.	.	.
4.G\	8	4.G\	4r	.	4r	.	.	.	.	.	.	.
.	.	.	4r	.	4r	.	.	.	.	.	.	.
8GG/	8	8GG/	.	.	.	.	.	.	.	.	.	.
4C/	8	4C/	8c/L	.	8e/L	.	.	.	.	.	.	.
.	.	.	8d/J	.	8f/J	.	.	.	.	.	.	.
=33	=33	=33	=33	=33	=33	=33	=33	=33	=33	=33	=33	=33
!LO:TX:b:t=V.V.	!	!	!	!	!	!	!	!	!	!	!	!
2C/	.	2C/	4.e/	.	4.g/	.	.	.	.	.	.	.
.	.	.	8d/	.	8f/	.	.	.	.	.	.	.
4r	.	4r	4c/	.	4e/	.	.	.	.	.	.	.
!	!	!LO:LB:g=original	!	!	!	!	!	!	!	!	!	!
=-	=-	=-	=-	=-	=-	=-	=-	=-	=-	=-	=-	=-
4C/	.	4C/	4e/	.	4g/	.	.	.	.	.	.	.
2r	.	4r	4f/	.	4a/	.	.	.	.	.	.	.
.	.	4r	4g/	.	4b-/	.	.	.	.	.	.	.
=34	=34	=34	=34	=34	=34	=34	=34	=34	=34	=34	=34	=34
2.F\	4 2	2.F\	2g/	.	2b-/	.	1.r	.	.	.	.	.
.	3	.	4f/	.	4a/	.	.	.	.	.	.	.
4F\	.	4F\	4.a/	.	4.cc\	.	.	.	.	.	.	.
4r	.	4r	.	.	.	.	.	.	.	.	.	.
.	.	.	8g/	.	8b-/	.	.	.	.	.	.	.
4r	.	4r	4f/	.	4a/	.	.	.	.	.	.	.
!	!	!	!	!	!LO:LB:g=original	!	!	!	!	!	!	!
=35	=35	=35	=35	=35	=35	=35	=35	=35	=35	=35	=35	=35
!LO:TX:b:i:t=Can Baſso	!	!	!	!LO:DY:b:t=piano	!	!LO:DY:b:t=piano	!	!	!	!	!	!
2BB-/	.	2BB-/	2b-/	p	2dd\	p	2B-\	Dul-	gau-	2dd\	dul-	gau-
*	*	*	*	*	*	*	*custos:B	*	*	*	*	*
4r	.	4r	4b-/	.	4dd\	.	4B-\	-ce	-dent	4dd\	-ce	-dent
!	!	!	!	!	!	!	!LO:PB:g=original	!	!	!LO:PB:g=original	!	!
=-	=-	=-	=-	=-	=-	=-	=-	=-	=-	=-	=-	=-
4F\	6 4	4F\	8b-/L	.	8dd\L	.	8B-\L	me-	mon-	8dd\L	me-	mon-
.	.	.	16a/L	.	16cc\L	.	16A\L	.	.	16cc\L	.	.
.	.	.	16g/JJ	.	16b-\JJ	.	16G\JJ	.	.	16b-\JJ	.	.
4FF/	x 3	4FF/	4a/	.	4cc\	.	4A\	-los	-tes	4cc\	-los	-tes
4r	.	4r	4a/	.	4cc\	.	4r	.	.	4r	.	.
=36	=36	=36	=36	=36	=36	=36	=36	=36	=36	=36	=36	=36
2F\	.	2F\	2f/	.	2f/	.	2F\	dul-	gau-	2f/	im-	sal-
4r	.	4r	4g/	.	4b-/	.	4G\	-ce	-dent	4b-\	-plet	-tant
4C/	7	4C/	8g/L	.	8b-/L	.	8G\L	me-	mon-	8b-\L	cae-	fon-
.	.	.	16f/L	.	16a/L	.	16F\L	.	.	16a\L	.	.
.	.	.	16e/JJ	.	16g/JJ	.	16E\JJ	.	.	16g\JJ	.	.
4F\	.	4F\	4f/	.	4a/	.	4F\	-los	-tes	4a\	-los	-tes
4r	.	4r	4f/	.	4a/	.	4r	.	.	4r	.	.
!	!	!	!LO:LB:g=original	!	!	!	!	!	!	!	!	!
=37	=37	=37	=37	=37	=37	=37	=37	=37	=37	=37	=37	=37
*	*	*	*^	*	*^	*	*	*	*	*	*	*
2C/	.	2C/	[>2.e/	2.c\	.	[>2.g/	2.c\	.	[<2.C/	cae-	fon-	8g/L	dul-	gau-
.	.	.	.	.	.	.	.	.	.	.	.	8f/J	.	.
.	.	.	.	.	.	.	.	.	.	.	.	8e/	.	.
.	.	.	.	.	.	.	.	.	.	.	.	8c/	-ce	-dent
4r	.	4r	.	.	.	.	.	.	.	.	.	8cc\	me-	mon-
.	.	.	.	.	.	.	.	.	.	.	.	8b-\	-los	-tes
2C/	.	2C/	2.e/_>	2.c\	.	2.g/_>	2.c\	.	2C/]	.	.	8a\L	im-	sal-
.	.	.	.	.	.	.	.	.	.	.	.	16g\L	.	.
.	.	.	.	.	.	.	.	.	.	.	.	16f\JJ	.	.
.	.	.	.	.	.	.	.	.	.	.	.	8e/	.	.
.	.	.	.	.	.	.	.	.	.	.	.	8c,/	-plet	-tant
=-	=-	=-	=-	=-	=-	=-	=-	=-	=-	=-	=-	=-	=-	=-
4r	.	4r	.	.	.	.	.	.	4C/	-los	-tes	8cc\	cae-	fon-
.	.	.	.	.	.	.	.	.	.	.	.	8b-\	-los	-tes
!LO:LB:g=original	!	!	!	!	!	!	!	!	!	!	!	!	!	!
=38	=38	=38	=38	=38	=38	=38	=38	=38	=38	=38	=38	=38	=38	=38
*	*	*	*	*	*	*	*	*	*	*^	*	*	*	*
2C/	.	2C/	2.e/_>	2.c\	.	2.g/_>	2.c\	.	8G\L	dul-	[[sal-	gau-	2.cc\	cae-	fon-
.	.	.	.	.	.	.	.	.	8F\J	.	.	.	.	.	.
.	.	.	.	.	.	.	.	.	8E\	.	-tant]]	.	.	.	.
.	.	.	.	.	.	.	.	.	8C/	-ce	.	-dent	.	.	.
*	*	*	*	*	*	*	*	*	*	*v	*v	*	*	*	*
4r	.	4r	.	.	.	.	.	.	8c\	me-	mon-	.	.	.
.	.	.	.	.	.	.	.	.	8B-\	-los	-tes	.	.	.
2C/	.	2C/	2.e/]	2.c\	.	2.g/]	2.c\	.	8A\L	im-	sal-	2cc\	.	.
.	.	.	.	.	.	.	.	.	16G\L	.	.	.	.	.
.	.	.	.	.	.	.	.	.	16F\JJ	.	.	.	.	.
.	.	.	.	.	.	.	.	.	8E\	.	.	.	.	.
.	.	.	.	.	.	.	.	.	8C/	-plet	-tant	.	.	.
!	!	!	!	!	!	!	!	!	!LO:LB:g=original	!	!	!	!	!
=-	=-	=-	=-	=-	=-	=-	=-	=-	=-	=-	=-	=-	=-	=-
4r	.	4r	.	.	.	.	.	.	8c\	cae-	fon-	4cc\	-los	-tes
.	.	.	.	.	.	.	.	.	8B-\	-los	-tes	.	.	.
*	*	*	*v	*v	*	*	*	*	*	*	*	*	*	*
*	*	*	*	*	*v	*v	*	*	*	*	*	*	*
=39	=39	=39	=39	=39	=39	=39	=39	=39	=39	=39	=39	=39
!	!	!	!LO:TX:a:t=3	!	!LO:TX:a:t=3	!	!	!	!	!	!	!
4F\	.	4F\	0.r	.	0.r	.	8A\	an-	mag-	8f/	an-	mag-
.	.	.	.	.	.	.	8G\	-ge-	-no	8b-\	-ge-	-no
4r	.	4r	.	.	.	.	4A\	-li	mun-	4cc\	-li	mun-
4r	.	4r	.	.	.	.	4B-\	con	-di	4dd\	con	-di
2C/	43	2C/	.	.	.	.	4.c\	iu-	Do-	4.g/	iu-	Do-
.	.	.	.	.	.	.	8C/	-bi-	-mi-	8b-\	-bi-	-mi-
4F\	.	4F\	.	.	.	.	[>4F\	-lant	-no	[>4a\	-lant	-no
=40	=40	=40	=40	=40	=40	=40	=40	=40	=40	=40	=40	=40
*^	*	*	*	*	*	*	*	*	*	*	*	*
4F/	2.ryy	.	4F\	.	.	.	.	8F\L]	.	.	8a\L]	.	.
.	.	.	.	.	.	.	.	8E\	.	.	8g\	.	.
4r	.	.	4r	.	.	.	.	8F\	.	.	8a\	.	.
.	.	.	.	.	.	.	.	8A\J	.	.	8cc\J	.	.
4r	.	.	4r	.	.	.	.	8G\L	.	.	8b-\L	.	.
.	.	.	.	.	.	.	.	16F\L	.	.	16a\L	.	.
.	.	.	.	.	.	.	.	16E\JJ	.	.	16g\JJ	.	.
*clefC1	*	*	*	*	*	*	*	*	*	*	*	*	*
8a/L	8f\L	.	4r	.	.	.	.	4F\	.	.	4a\	.	.
8g/	8e\	.	.	.	.	.	.	.	.	.	.	.	.
8a/	8f\	.	2r	.	.	.	.	4r	.	.	4r	.	.
8cc/J	8a\J	.	.	.	.	.	.	.	.	.	.	.	.
8b-/L	8g\L	.	.	.	.	.	.	4r	.	.	4r	.	.
16a/L	16f\L	.	.	.	.	.	.	.	.	.	.	.	.
16g/JJ	16e\JJ	.	.	.	.	.	.	.	.	.	.	.	.
!	!	!	!	!	!	!	!	!	!	!	!LO:LB:g=original	!	!
=41	=41	=41	=41	=41	=41	=41	=41	=41	=41	=41	=41	=41	=41
*	*	*	*custos:C	*	*	*	*	*	*	*	*	*	*
!	!	!	!LO:N:vis=2	!LO:N:vis=1	!	!LO:N:vis=1	!	!	!	!	!	!	!
4a/	4f\	.	2.r	1.r	.	1.r	.	8F\	an-	mag-	8f/	an-	mag-
.	.	.	.	.	.	.	.	8G\	-ge-	-no	8g/	-ge-	-no
4r	4r	.	.	.	.	.	.	4A\	-li	mun-	4a\	-li	mun-
!	!	!	!LO:PB:g=original	!	!	!	!	!LO:LB:g=original	!	!	!	!	!
=-	=-	=-	=-	=-	=-	=-	=-	=-	=-	=-	=-	=-	=-
4r	4r	.	.	.	.	.	.	4B-\	con	-di	4b-\	con	-di
*clefF4	*	*	*	*	*	*	*	*	*	*	*	*	*
2C/	4ryy	8	2C/	.	.	.	.	4.c\	iu-	Do-	4.cc\	iu-	Do-
.	2ryy	.	.	.	.	.	.	.	.	.	.	.	.
.	.	.	.	.	.	.	.	8C/	-bi-	-mi-	8c/	-bi-	-mi-
4F\	.	8	4F\	.	.	.	.	4F\	-lant	-no	4f/	-lant	-no
*clefC1	*	*	*	*	*	*	*	*	*	*	*	*	*
=42	=42	=42	=42	=42	=42	=42	=42	=42	=42	=42	=42	=42	=42
!	!	!	!LO:N:vis=2	!	!	!	!	!LO:N:vis=2	!	!	!LO:N:vis=2	!	!
8a/L	8f\L	.	2.r	4r	.	4r	.	2.r	.	.	2.r	.	.
8g/J	8e\J	.	.	.	.	.	.	.	.	.	.	.	.
4a/	4f\	.	.	4r	.	4r	.	.	.	.	.	.	.
4r	4ryy	.	.	4f/	.	4a/	.	.	.	.	.	.	.
*clefF4	*	*	*	*	*	*	*	*	*	*	*	*	*
!	!	!	!	!LO:N:vis=2	!	!LO:N:vis=2	!	!	!	!	!	!	!
4F\	4ryy	.	4F\	2.r	.	2.r	.	8F\	iu-	Do-	8a\	iu-	Do-
.	.	.	.	.	.	.	.	8E\	-bi-	-mi-	8g/	-bi-	-mi-
4rGG	2ryy	.	4r	.	.	.	.	4F\	-lant	-no	4a\	-lant	-no
*custos:F	*	*	*	*	*	*	*	*	*	*	*	*	*
4F\	.	.	4F\	.	.	.	.	4r	.	.	4r	.	.
*v	*v	*	*	*	*	*	*	*	*	*	*	*	*
!LO:PB:g=original	!	!	!	!	!	!	!	!	!	!	!	!
=43	=43	=43	=43	=43	=43	=43	=43	=43	=43	=43	=43	=43
!	!	!	!	!LO:DY:b:t=forte	!	!	!LO:N:vis=2	!	!	!	!	!
4F\	.	4F\	8f/L	f	8a/L	.	2.r	.	.	2.r	.	.
.	.	.	8e/J	.	8g/J	.	.	.	.	.	.	.
4r	.	4r	4f/	.	4a/	.	.	.	.	.	.	.
4F\	.	4F\	4r	.	4r	.	.	.	.	.	.	.
8F\L	8	8F\L	8f/L	.	8ff\L	.	8F\	an-	mag-	8ff\	an-	mag-
16E\L	8	16E\L	16e/L	.	16ee\L	.	(>16E\LL	-ge-	-no	(>16ee\LL	-ge-	-no
16D\JJ	8	16D\JJ	16d/JJ	.	16dd\JJ	.	16D\JJ)	.	.	16dd\JJ)	.	.
4C/	8	4C/	4c/	.	4cc\	.	4C/	-li	mun-	4cc\	-li	mun-
8BB-/L	8	8BB-/L	8B-/L	.	8b-/L	.	8BB-/L	con	-di	(>8b-\L	con	-di
*	*	*	*	*	*custos:cc	*	*	*	*	*	*	*
8GG/J	8	8GG/J	8G/J	.	8g/J	.	8GG/J	.	.	8g\J)	.	.
!	!	!	!	!	!LO:LB:g=original	!	!	!	!	!LO:LB:g=original	!	!
=44	=44	=44	=44	=44	=44	=44	=44	=44	=44	=44	=44	=44
2C/	8	2C/	2c/	.	4.cc\	.	4.C/	iu-	Do-	4.cc\	iu-	Do-
.	.	.	.	.	8c/	.	8C/	-bi-	-mi-	8c/	-bi-	-mi-
4FF/	3	4FF/	8f/L	.	8f/L	.	4FF/	-lant	-no	4f/	-lant	-no
.	.	.	16f/L	.	16a/L	.	.	.	.	.	.	.
.	.	.	16g/JJ	.	16b-/JJ	.	.	.	.	.	.	.
!	!	!	!	!	!	!	!LO:LB:g=original	!	!	!	!	!
=-	=-	=-	=-	=-	=-	=-	=-	=-	=-	=-	=-	=-
!	!	!	!	!	!	!LO:DY:b:t=forte	!LO:N:vis=2	!	!	!LO:N:vis=2	!	!
2F\	.	2F\	8a/	.	8cc\	f	2.r	.	.	2.r	.	.
.	.	.	4f/	.	4a/	.	.	.	.	.	.	.
.	.	.	8a/L	.	8cc\L	.	.	.	.	.	.	.
4r	.	4r	8g/	.	8b-\	.	.	.	.	.	.	.
.	.	.	8f/J	.	8a\J	.	.	.	.	.	.	.
=45	=45	=45	=45	=45	=45	=45	=45	=45	=45	=45	=45	=45
!	!	!	!	!	!	!	!LO:TX:a:t=2	!	!	!LO:TX:a:t=2	!	!
!	!	!	!	!	!	!	!LO:TX:b:t=Autho.\n J.F.A.G.\nKobier&colon;	!	!	!LO:TX:b:t=Autho&colon; J.F.A.G.\nKobier&colon;	!	!
2C/	7	2C/	8g/	.	8b-/	.	0.r	.	.	0.r	.	.
.	.	.	4e/	.	4g/	.	.	.	.	.	.	.
.	.	.	8g/L	.	8b-/L	.	.	.	.	.	.	.
4r	.	4r	8f/	.	8a/	.	.	.	.	.	.	.
.	.	.	8e/J	.	8g/J	.	.	.	.	.	.	.
2C/	6 4	2C/	4f/	.	4a/	.	.	.	.	.	.	.
.	.	.	4e/	.	4g/	.	.	.	.	.	.	.
4r	.	4r	4g/	.	4b-/	.	.	.	.	.	.	.
!	!	!	!LO:LB:g=original	!	!	!	!	!	!	!	!	!
=46	=46	=46	=46	=46	=46	=46	=46	=46	=46	=46	=46	=46
4r	.	4r	8f/L	.	8a/L	.	.	.	.	.	.	.
.	.	.	8e/J	.	8g/J	.	.	.	.	.	.	.
2C/	43	2C/	4.e/	.	4.g/	.	.	.	.	.	.	.
.	.	.	8f/	.	8f/	.	.	.	.	.	.	.
!LO:TX:a:t=a Capite	!	!LO:TX:a:t=a Capite	!	!	!	!	!	!	!	!	!	!
!LO:TX:b:t=Auth&colon; J.F.A.G.\nKobier&colon;	!	!	!	!	!	!	!	!	!	!	!	!
2.FF/	.	2.FF/	2f/	.	2f/	.	.	.	.	.	.	.
!	!	!	!LO:TX:a:t=a Capite	!	!LO:TX:a:t=â Capite	!	!	!	!	!	!	!
.	.	.	4r	.	4r	.	.	.	.	.	.	.
!LO:PB:g=original	!	!LO:PB:g=original	!LO:PB:g=original	!	!LO:PB:g=original	!	!LO:PB:g=original	!	!	!LO:LB:g=original	!	!
==	==	==	==	==	==	==	==	==	==	==	==	==
*-	*-	*-	*-	*-	*-	*-	*-	*-	*-	*-	*-	*-
!!!system-decoration: [(s1,s2)][(s3,s4,s5)][(s6)]
!!!RDF**kern: < = below
!!!RDF**kern: > = above
!!!ENC: Tomasz Grochalski
!!!END: 2020-07-21
!!!ENC: Marta Chmielewska
!!!END: 2021-12-29
!!!YEC: Copyright 2022 Narodowy Instytut Fryderyka Chopina (https://polishscores.org)
!!!YEM: License CC-BY-4.0 (https://creativecommons.org/licenses/by/4.0)
